dist/assets/uwm-icons/icon_twitter.svg

<?xml version="1.0" encoding="UTF-8"?>
<svg width="24px" height="24px" viewBox="0 0 24 24" version="1.1" xmlns="http://www.w3.org/2000/svg" xmlns:xlink="http://www.w3.org/1999/xlink">
    <!-- Generator: Sketch 48.2 (47327) - http://www.bohemiancoding.com/sketch -->
    <title>icon_twitter</title>
    <desc>Created with Sketch.</desc>
    <defs></defs>
    <g id="Icons" stroke="none" stroke-width="1" fill="none" fill-rule="evenodd">
        <g id="icon_twitter">
            <rect id="Rectangle" fill="#FFFFFF" x="0" y="0" width="24" height="24"></rect>
            <path d="M21,6.77548015 C20.3375885,7.07645579 19.6258103,7.28078788 18.8790266,7.37098853 C19.6410691,6.90341781 20.2271866,6.16156348 20.5027426,5.27612444 C19.7891692,5.71056023 18.9993019,6.0262625 18.1573751,6.19561883 C17.4841927,5.45928699 16.5246834,5 15.4619527,5 C13.4226588,5 11.7693228,6.69540406 11.7693228,8.7875069 C11.7693228,9.08388047 11.8016356,9.3719703 11.8653635,9.64901516 C8.79565174,9.49162423 6.07509724,7.98398478 4.25301685,5.69307234 C3.93527476,6.25268454 3.75306672,6.90249739 3.75306672,7.59741057 C3.75306672,8.90992207 4.40560487,10.0696447 5.39563179,10.7489108 C4.7906652,10.7286617 4.22160168,10.558385 3.72344669,10.2748972 C3.72254912,10.2905443 3.72254912,10.3071117 3.72254912,10.3227588 C3.72254912,12.1580659 4.99621023,13.6877953 6.68544929,14.0366325 C6.37578538,14.1222311 6.04906752,14.1682518 5.71247631,14.1682518 C5.47461853,14.1682518 5.24304378,14.1452415 5.01775207,14.1010615 C5.48808218,15.6050193 6.85150095,16.7003129 8.46713873,16.7306866 C7.20335095,17.7468246 5.61105016,18.3515371 3.88052259,18.3515371 C3.58252718,18.3515371 3.28901965,18.3340492 3,18.2990734 C4.63448689,19.3741179 6.57594495,20 8.66101526,20 C15.4538745,20 19.1671487,14.2299196 19.1671487,9.22562435 C19.1671487,9.06179051 19.164456,8.89795668 19.1572754,8.73596367 C19.8789269,8.20212309 20.5054353,7.53482236 21,6.77548015" id="Fill-193" fill="#000000"></path>
        </g>
    </g>
</svg>

<svg width="24" height="24" xmlns="http://www.w3.org/2000/svg"><g fill="none" fill-rule="evenodd"><path fill="#FFF" d="M0 0h24v24H0z"/><path d="M21 6.775a7.208 7.208 0 0 1-2.121.596 3.776 3.776 0 0 0 1.624-2.095 7.259 7.259 0 0 1-2.346.92A3.643 3.643 0 0 0 15.462 5c-2.04 0-3.693 1.695-3.693 3.788 0 .296.033.584.096.861-3.07-.157-5.79-1.665-7.612-3.956-.318.56-.5 1.21-.5 1.904 0 1.313.653 2.473 1.643 3.152a3.618 3.618 0 0 1-1.673-.474v.048c0 1.835 1.273 3.365 2.962 3.714a3.65 3.65 0 0 1-1.667.064c.47 1.504 1.834 2.6 3.45 2.63A7.29 7.29 0 0 1 3 18.299 10.262 10.262 0 0 0 8.661 20c6.793 0 10.506-5.77 10.506-10.774 0-.164-.003-.328-.01-.49A7.603 7.603 0 0 0 21 6.776" fill="#000"/></g></svg>
